;FLAVOR:Marlin
;TIME:1778
;Filament used: 1.43831m
;Layer height: 0.2
;MINX:75.658
;MINY:90.392
;MINZ:0.25
;MAXX:173.978
;MAXY:119.608
;MAXZ:35.45
;Generated with Cura_SteamEngine 5.2.1
M82 ;absolute extrusion mode
M220 S100
M204 S1250
G92 E0
G1 F700 E-1
M104 S235
M140 S85
M109 S170
G28 X
G0 F8000 X1
G28 Y
G0 F8000 Y1
G28 Z
M190 S85
G34 I20 T0.1
G29
M121
G0 F8000 X40 Y-20
G0 F480 Z1
G92 E0
M109 S235
G1 F450 X140 E25
G92 E0
G0 F480 Z0.0
M120
M220 S100
G92 E0
G92 E0
G1 F1500 E-0.8
;LAYER_COUNT:177
;LAYER:0
M107
M204 S900
M205 X10 Y10
G1 F720 Z0.65
G0 F7200 X77.051 Y94.211 Z0.65
;TYPE:SKIRT
G1 F720 Z0.25
G1 F2100 E0.02079
G1 F1200 X77.604 Y93.832 E0.05368
G1 X79.705 Y92.903 E0.16638
G1 X82.13 Y91.764 E0.29781
G1 X84.419 Y90.621 E0.42333
G1 X85.747 Y90.392 E0.48944
G1 X170.2 Y90.392 E4.6326
G1 X170.855 Y90.45 E4.66485
G1 X171.89 Y90.779 E4.71813
G1 X172.785 Y91.394 E4.77141
G1 X173.463 Y92.242 E4.82467
G1 X173.867 Y93.249 E4.8779
G1 X173.976 Y94.074 E4.91873
G1 X173.978 Y115.833 E5.9862
G1 X173.796 Y117.009 E6.04458
G1 X173.321 Y117.985 E6.09783
G1 X172.583 Y118.781 E6.15108
G1 X171.646 Y119.33 E6.20436
G1 X171.128 Y119.495 E6.23103
G1 X170.353 Y119.597 E6.26937
G1 X167.992 Y119.589 E6.3852
G1 X165.917 Y119.429 E6.4873
G1 X163.229 Y119.279 E6.61938
G1 X160.472 Y119.204 E6.75468
G1 X157.747 Y119.208 E6.88837
G1 X155.056 Y119.287 E7.02044
G1 X150.107 Y119.608 E7.26374
G1 X147.989 Y119.589 E7.36765
G1 X145.936 Y119.43 E7.46867
G1 X143.248 Y119.28 E7.60075
G1 X140.489 Y119.205 E7.73615
G1 X137.766 Y119.207 E7.86974
G1 X135.074 Y119.286 E8.00186
G1 X130.955 Y119.552 E8.20435
G1 X130.362 Y119.598 E8.23353
G1 X127.847 Y119.597 E8.35691
G1 X127.115 Y119.421 E8.39385
G1 X126.469 Y119.161 E8.42801
G1 X124.744 Y118.021 E8.52945
G1 X122.443 Y116.563 E8.66309
G1 X120.11 Y115.176 E8.79624
G1 X117.727 Y113.848 E8.93007
G1 X115.307 Y112.589 E9.0639
G1 X112.864 Y111.404 E9.19711
G1 X110.377 Y110.283 E9.33094
G1 X107.872 Y109.238 E9.46409
G1 X105.315 Y108.256 E9.59847
G1 X102.747 Y107.352 E9.73203
G1 X100.144 Y106.518 E9.86612
G1 X97.571 Y105.772 E9.99755
G1 X94.903 Y105.081 E10.13276
G1 X92.238 Y104.469 E10.2669
G1 X89.567 Y103.936 E10.40052
G1 X86.893 Y103.481 E10.53359
G1 X84.235 Y103.105 E10.66529
G1 X81.463 Y102.792 E10.80214
G1 X78.685 Y102.554 E10.93893
G1 X77.992 Y102.335 E10.97458
G1 X77.053 Y101.79 E11.02784
G1 X76.312 Y100.996 E11.08112
G1 X75.834 Y100.022 E11.13435
G1 X75.658 Y98.991 E11.18566
G1 X75.658 Y96.709 E11.29762
G1 X75.833 Y95.98 E11.3344
G1 X76.311 Y95.005 E11.38767
G1 X77.051 Y94.211 E11.44091
G0 F7200 X77.635 Y94.334
G1 F1200 X79.883 Y93.34 E11.5615
G1 X82.333 Y92.19 E11.69427
G1 X84.611 Y91.054 E11.81915
G1 X85.469 Y90.864 E11.86227
G1 X170.2 Y90.864 E16.01906
G1 X170.813 Y90.922 E16.04927
G1 X171.772 Y91.249 E16.09897
G1 X172.583 Y91.857 E16.1487
G1 X173.166 Y92.686 E16.19842
G1 X173.353 Y93.159 E16.22337
G1 X173.504 Y94.124 E16.27129
G1 X173.506 Y115.833 E17.3363
G1 X173.45 Y116.437 E17.36606
G1 X173.125 Y117.397 E17.41579
G1 X172.518 Y118.209 E17.46552
G1 X171.69 Y118.794 E17.51526
G1 X170.58 Y119.125 E17.57208
G1 X168.207 Y119.126 E17.6885
G1 X165.949 Y118.958 E17.79958
G1 X163.233 Y118.807 E17.93303
G1 X160.484 Y118.732 E18.06794
G1 X157.768 Y118.736 E18.20118
G1 X155.013 Y118.817 E18.3364
G1 X150.351 Y119.125 E18.56561
G1 X148.023 Y119.118 E18.67982
G1 X145.968 Y118.959 E18.78094
G1 X143.252 Y118.808 E18.91438
G1 X140.502 Y118.733 E19.04935
G1 X137.786 Y118.735 E19.18259
G1 X135.031 Y118.816 E19.31781
G1 X130.927 Y119.081 E19.51956
G1 X130.349 Y119.126 E19.548
G1 X127.872 Y119.125 E19.66952
G1 X126.648 Y118.714 E19.73286
G1 X125.007 Y117.629 E19.82938
G1 X122.699 Y116.166 E19.96343
G1 X120.357 Y114.774 E20.09709
G1 X117.936 Y113.425 E20.23306
G1 X115.548 Y112.182 E20.36513
G1 X113.053 Y110.972 E20.50117
G1 X110.583 Y109.858 E20.63409
G1 X108.041 Y108.798 E20.76921
G1 X105.46 Y107.806 E20.90486
G1 X102.91 Y106.909 E21.03747
G1 X100.28 Y106.066 E21.17297
G1 X97.682 Y105.313 E21.30567
G1 X95.013 Y104.622 E21.44092
G1 X92.337 Y104.007 E21.57562
G1 X89.66 Y103.473 E21.70954
G1 X86.972 Y103.015 E21.84331
G1 X84.283 Y102.635 E21.97654
G1 X81.52 Y102.324 E22.11295
G1 X78.748 Y102.086 E22.24944
G1 X78.105 Y101.871 E22.2827
G1 X77.244 Y101.335 E22.33245
G1 X76.592 Y100.559 E22.38218
G1 X76.212 Y99.619 E22.43192
G1 X76.13 Y98.978 E22.46362
G1 X76.13 Y96.739 E22.57346
G1 X76.304 Y96.06 E22.60785
G1 X76.778 Y95.164 E22.65758
G1 X77.635 Y94.334 E22.71611
G1 F1500 E21.91611
G1 F720 Z0.65
;MESH:GT2 Tension Meter.STL
G0 F7200 X80.042 Y98.214 Z0.65
;TYPE:WALL-INNER
G1 F720 Z0.25
G1 F2100 E22.7369
G1 F1200 X128.242 Y98.214 E24.66667
G1 X128.809 Y98.475 E24.69295
G1 X128.95 Y98.9 E24.71272
G1 X128.95 Y106.224 E25.0361
G1 X128.985 Y106.9 E25.0682
G1 X128.985 Y115.157 E25.48684
G1 X129.527 Y115.157 E25.51432
G1 X129.527 Y106.9 E25.93295
G1 X129.703 Y106.475 E25.95477
G1 X129.997 Y106.246 E25.97122
G1 X130.27 Y106.192 E25.98351
G1 X148.352 Y106.192 E26.78188
G1 X148.797 Y106.458 E26.80477
G1 X148.985 Y106.9 E26.82751
G1 X148.986 Y115.157 E27.24537
G1 X149.527 Y115.157 E27.2728
G1 X149.527 Y106.9 E27.69067
G1 X149.715 Y106.458 E27.7134
G1 X150.18 Y106.192 E27.73706
G1 X168.242 Y106.192 E28.53454
G1 X168.515 Y106.246 E28.54683
G1 X168.81 Y106.474 E28.56329
G1 X168.985 Y106.9 E28.58514
G1 X168.986 Y115.157 E29.00377
G1 X169.527 Y115.157 E29.0312
G1 X169.527 Y106.9 E29.44984
G1 X169.562 Y106.224 E29.48194
G1 X169.562 Y95.38 E29.96074
G1 X169.561 Y94.786 E29.98635
G1 X161.247 Y94.786 E30.33477
G1 X152.933 Y94.786 E30.68164
G1 X144.619 Y94.786 E31.02695
G1 X136.305 Y94.786 E31.3707
G1 X127.991 Y94.786 E31.7129
G1 X119.677 Y94.786 E32.05277
G1 X111.363 Y94.786 E32.39108
G1 X103.049 Y94.786 E32.72784
G1 X94.735 Y94.786 E33.06304
G1 X86.421 Y94.786 E33.39668
G1 X86.417 Y95.214 E33.41382
G1 X167.819 Y95.214 E36.6729
G1 X168.466 Y95.612 E36.70488
G1 X168.544 Y97.222 E36.77604
G1 X168.419 Y97.517 E36.79019
G1 X168.122 Y97.752 E36.80691
G1 X167.845 Y97.808 E36.81939
G1 X129.142 Y97.808 E38.52824
G1 X128.242 Y97.786 E38.56613
G1 X80.042 Y97.786 E40.49591
G1 X80.042 Y98.214 E40.51305
G0 F7200 X79.592 Y98.664
;TYPE:WALL-OUTER
G1 F1200 X128.242 Y98.664 E42.66108
G1 X128.478 Y98.781 E42.67271
G1 X128.478 Y115.664 E43.41815
G1 X130.034 Y115.664 E43.48685
G1 X130.034 Y106.9 E43.8738
G1 X130.202 Y106.664 E43.88659
G1 X148.291 Y106.668 E44.68527
G1 X148.427 Y106.752 E44.69233
G1 X148.479 Y106.9 E44.69926
G1 X148.479 Y115.664 E45.08621
G1 X150.034 Y115.664 E45.15487
G1 X150.033 Y106.9 E45.54183
G1 X150.213 Y106.664 E45.55493
G1 X168.31 Y106.664 E46.35397
G1 X168.478 Y106.9 E46.36676
G1 X168.479 Y115.664 E46.75371
G1 X170.034 Y115.664 E46.82237
G1 X170.034 Y95.38 E47.71796
G1 X170.033 Y94.336 E47.76406
G1 X85.967 Y94.336 E51.47581
G1 X85.967 Y95.664 E51.53445
G1 X167.819 Y95.664 E55.14844
G1 X168.035 Y95.804 E55.15981
G1 X168.078 Y97.141 E55.21887
G1 X167.915 Y97.336 E55.23009
G1 X79.592 Y97.336 E59.1298
G1 X79.592 Y98.664 E59.18844
G0 F7200 X79.792 Y98.664
G1 F1500 E58.38844
G1 F720 Z0.65
G0 F7200 X129.5 Y106.483 Z0.65
;TYPE:SKIN
G1 F720 Z0.25
G1 F2100 E59.20923
G1 F1200 X129.135 Y106.119 E59.23792
G0 F7200 X129.875 Y106.116
G1 F1200 X129.135 Y105.376 E59.29617
G0 F7200 X129.135 Y104.634
G1 F1200 X130.507 Y106.005 E59.40412
G0 F7200 X131.249 Y106.005
G1 F1200 X129.135 Y103.891 E59.57052
G0 F7200 X129.135 Y103.149
G1 F1200 X131.992 Y106.005 E59.79537
G0 F7200 X132.734 Y106.005
G1 F1200 X129.135 Y102.406 E60.07866
G0 F7200 X129.135 Y101.664
G1 F1200 X133.477 Y106.005 E60.42039
G0 F7200 X134.219 Y106.005
G1 F1200 X129.135 Y100.921 E60.82057
G0 F7200 X129.135 Y100.179
G1 F1200 X134.961 Y106.005 E61.27915
G0 F7200 X135.704 Y106.005
G1 F1200 X129.135 Y99.436 E61.79622
G0 F7200 X129.029 Y98.588
G1 F1200 X136.446 Y106.005 E62.38004
G0 F7200 X137.189 Y106.005
G1 F1200 X129.177 Y97.994 E63.01065
G0 F7200 X128.67 Y98.229
G1 F1200 X128.435 Y97.994 E63.02915
G0 F7200 X129.92 Y97.994
G1 F1200 X137.931 Y106.005 E63.65972
G0 F7200 X138.674 Y106.005
G1 F1200 X130.662 Y97.994 E64.29033
G0 F7200 X131.405 Y97.994
G1 F1200 X139.416 Y106.005 E64.92091
G0 F7200 X140.159 Y106.005
G1 F1200 X132.147 Y97.994 E65.55152
G0 F7200 X132.89 Y97.994
G1 F1200 X140.901 Y106.005 E66.18209
G0 F7200 X141.644 Y106.005
G1 F1200 X133.632 Y97.994 E66.8127
G0 F7200 X134.375 Y97.994
G1 F1200 X142.386 Y106.005 E67.44328
G0 F7200 X143.129 Y106.005
G1 F1200 X135.117 Y97.994 E68.07389
G0 F7200 X135.859 Y97.994
G1 F1200 X143.871 Y106.005 E68.7045
G0 F7200 X144.613 Y106.005
G1 F1200 X136.602 Y97.994 E69.33507
G0 F7200 X137.344 Y97.994
G1 F1200 X145.356 Y106.005 E69.96568
G0 F7200 X146.098 Y106.005
G1 F1200 X138.087 Y97.994 E70.59626
G0 F7200 X138.829 Y97.994
G1 F1200 X146.841 Y106.005 E71.22687
G0 F7200 X147.583 Y106.005
G1 F1200 X139.572 Y97.994 E71.85744
G0 F7200 X140.314 Y97.994
G1 F1200 X148.326 Y106.005 E72.48805
G0 F7200 X149.182 Y106.862
G1 F1200 X149.27 Y106.949 E72.49494
G0 F7200 X149.518 Y106.455
G1 F1200 X141.057 Y97.994 E73.16094
G0 F7200 X141.799 Y97.994
G1 F1200 X149.903 Y106.097 E73.79879
G0 F7200 X150.553 Y106.005
G1 F1200 X142.542 Y97.994 E74.42936
G0 F7200 X143.284 Y97.994
G1 F1200 X151.296 Y106.005 E75.05997
G0 F7200 X152.038 Y106.005
G1 F1200 X144.027 Y97.994 E75.69055
G0 F7200 X144.769 Y97.994
G1 F1200 X152.781 Y106.005 E76.32116
G0 F7200 X153.523 Y106.005
G1 F1200 X145.511 Y97.994 E76.95177
G0 F7200 X146.254 Y97.994
G1 F1200 X154.265 Y106.005 E77.58234
G0 F7200 X155.008 Y106.005
G1 F1200 X146.996 Y97.994 E78.21296
G0 F7200 X147.739 Y97.994
G1 F1200 X155.75 Y106.005 E78.84353
G0 F7200 X156.493 Y106.005
G1 F1200 X148.481 Y97.994 E79.47414
G0 F7200 X149.224 Y97.994
G1 F1200 X157.235 Y106.005 E80.10471
G0 F7200 X157.978 Y106.005
G1 F1200 X149.966 Y97.994 E80.73533
G0 F7200 X150.709 Y97.994
G1 F1200 X158.72 Y106.005 E81.3659
G0 F7200 X159.463 Y106.005
G1 F1200 X151.451 Y97.994 E81.99651
G0 F7200 X152.194 Y97.994
G1 F1200 X160.205 Y106.005 E82.62708
G0 F7200 X160.948 Y106.005
G1 F1200 X152.936 Y97.994 E83.2577
G0 F7200 X153.679 Y97.994
G1 F1200 X161.69 Y106.005 E83.88827
G0 F7200 X162.433 Y106.005
G1 F1200 X154.421 Y97.994 E84.51888
G0 F7200 X155.163 Y97.994
G1 F1200 X163.175 Y106.005 E85.14949
G0 F7200 X163.917 Y106.005
G1 F1200 X155.906 Y97.994 E85.78007
G0 F7200 X156.648 Y97.994
G1 F1200 X164.66 Y106.005 E86.41068
G0 F7200 X165.402 Y106.005
G1 F1200 X157.391 Y97.994 E87.04125
G0 F7200 X158.133 Y97.994
G1 F1200 X166.145 Y106.005 E87.67186
G0 F7200 X166.887 Y106.005
G1 F1200 X158.876 Y97.994 E88.30244
G0 F7200 X159.618 Y97.994
G1 F1200 X167.63 Y106.005 E88.93305
G0 F7200 X168.407 Y106.04
G1 F1200 X160.361 Y97.994 E89.56638
G0 F7200 X161.103 Y97.994
G1 F1200 X169.371 Y106.262 E90.21718
G0 F7200 X169.144 Y106.778
G1 F1200 X169.302 Y106.935 E90.22958
G0 F7200 X169.375 Y105.523
G1 F1200 X161.846 Y97.994 E90.82221
G0 F7200 X162.588 Y97.994
G1 F1200 X169.375 Y104.781 E91.35644
G0 F7200 X169.375 Y104.038
G1 F1200 X163.331 Y97.994 E91.83218
G0 F7200 X164.073 Y97.994
G1 F1200 X169.375 Y103.296 E92.24952
G0 F7200 X169.375 Y102.553
G1 F1200 X164.815 Y97.994 E92.60841
G0 F7200 X165.558 Y97.994
G1 F1200 X169.375 Y101.811 E92.90886
G0 F7200 X169.375 Y101.068
G1 F1200 X166.3 Y97.994 E93.15087
G0 F7200 X167.043 Y97.994
G1 F1200 X169.375 Y100.326 E93.33442
G0 F7200 X169.375 Y99.583
G1 F1200 X167.785 Y97.994 E93.45954
G0 F7200 X168.34 Y97.806
G1 F1200 X169.375 Y98.841 E93.54101
G0 F7200 X169.375 Y98.099
G1 F1200 X168.666 Y97.39 E93.59682
G0 F7200 X168.719 Y96.701
G1 F1200 X169.375 Y97.356 E93.64841
G0 F7200 X169.375 Y96.614
G1 F1200 X168.712 Y95.95 E93.70064
G0 F7200 X169.375 Y95.871
G1 F1200 X168.472 Y94.968 E93.77172
G0 F7200 X169.236 Y94.99
M104 S235
G1 F1200 X169.375 Y95.129 E93.78266
G1 F1500 E92.98266
G1 F720 Z0.65
;MESH:NONMESH
G0 F7200 X79.983 Y98.275 Z0.65
;TIME_ELAPSED:106.222774
;LAYER:1
;MESH:GT2 Tension Meter.STL
G0 X79.983 Y98.275 Z0.85
;TYPE:WALL-INNER
G1 F720 Z0.45
G1 F2100 E93.80345
G1 F2400 X127.917 Y98.275 E95.77638
G1 X128.323 Y98.459 E95.79306
G1 X128.541 Y98.74 E95.80504
G1 X128.592 Y99 E95.81396
G1 X128.592 Y115.325 E96.36372
G1 X129.92 Y115.325 E96.40844
G1 X129.92 Y107 E96.68879
G1 X130.054 Y106.594 E96.70319
G1 X130.335 Y106.376 E96.71517
G1 X130.595 Y106.325 E96.72409
G1 X148.008 Y106.33 E97.31049
G1 X148.241 Y106.407 E97.31875
G1 X148.494 Y106.647 E97.33049
G1 X148.593 Y107 E97.34284
G1 X148.593 Y115.325 E97.62319
G1 X149.92 Y115.325 E97.66788
G1 X149.919 Y107 E97.94823
G1 X150.018 Y106.647 E97.96058
G1 X150.27 Y106.407 E97.9723
G1 X150.504 Y106.33 E97.98059
G1 X167.917 Y106.325 E98.56699
G1 X168.177 Y106.377 E98.57592
G1 X168.458 Y106.594 E98.58788
G1 X168.592 Y107 E98.60227
G1 X168.593 Y115.325 E98.88263
G1 X169.92 Y115.325 E98.92731
G1 X169.92 Y95.464 E99.59615
G1 X169.919 Y94.675 E99.62272
G1 X167.768 Y94.725 E99.70323
G1 X86.131 Y94.725 E103.06336
G1 X86.131 Y95.275 E103.086
G1 X167.768 Y95.275 E106.44613
G1 X168.18 Y95.464 E106.46309
G1 X168.396 Y95.753 E106.47524
G1 X168.434 Y97.116 E106.52116
G1 X168.174 Y97.54 E106.53791
G1 X167.904 Y97.675 E106.54807
G1 X128.584 Y97.675 E107.87221
G1 X127.917 Y97.725 E107.89724
G1 X79.983 Y97.725 E109.87017
G1 X79.983 Y98.275 E109.89281
G0 F7200 X79.483 Y98.775
;TYPE:WALL-OUTER
G1 F1200 X127.917 Y98.775 E111.52387
G1 X128.142 Y98.935 E111.53316
G1 X128.142 Y115.775 E112.10027
G1 X130.37 Y115.775 E112.1753
G1 X130.37 Y107 E112.4708
G1 X130.53 Y106.775 E112.4801
G1 X147.948 Y106.776 E113.06667
G1 X148.143 Y106.904 E113.07452
G1 X148.143 Y115.775 E113.37326
G1 X150.37 Y115.775 E113.44826
G1 X150.369 Y107 E113.74376
G1 X150.474 Y106.776 E113.75209
G1 X167.982 Y106.775 E114.34169
G1 X168.142 Y107 E114.35099
G1 X168.143 Y115.775 E114.64649
G1 X170.37 Y115.775 E114.72149
G1 X170.37 Y95.464 E115.40548
G1 X170.369 Y94.225 E115.44721
G1 X85.631 Y94.225 E118.30083
G1 X85.631 Y95.775 E118.35303
G1 X167.768 Y95.775 E121.11907
G1 X167.978 Y95.917 E121.1276
G1 X167.99 Y97.039 E121.16539
G1 X167.814 Y97.225 E121.17401
G1 X79.483 Y97.225 E124.14864
G1 X79.483 Y98.775 E124.20084
G0 F7200 X79.683 Y98.775
G1 F1500 E123.40084
G1 F720 Z0.85
G0 F7200 X128.115 Y98.159 Z0.85
;TYPE:SKIN
G1 F720 Z0.45
G1 F2100 E124.22162
G1 F4200 X128.397 Y97.877 E124.23854
G0 F7200 X128.528 Y98.452
G1 F4200 X129.131 Y97.85 E124.27467
G0 F7200 X129.838 Y97.85
G1 F4200 X128.752 Y98.935 E124.33977
G0 F7200 X128.766 Y99.629
G1 F4200 X130.545 Y97.85 E124.44646
G0 F7200 X131.252 Y97.85
G1 F4200 X128.766 Y100.336 E124.59555
G0 F7200 X128.766 Y101.043
G1 F4200 X131.959 Y97.85 E124.78704
G0 F7200 X132.666 Y97.85
G1 F4200 X128.766 Y101.75 E125.02093
G0 F7200 X128.766 Y102.457
G1 F4200 X133.373 Y97.85 E125.29722
G0 F7200 X134.08 Y97.85
G1 F4200 X128.766 Y103.164 E125.61592
G0 F7200 X128.766 Y103.871
G1 F4200 X134.787 Y97.85 E125.97701
G0 F7200 X135.495 Y97.85
G1 F4200 X128.766 Y104.578 E126.38053
G0 F7200 X128.766 Y105.286
G1 F4200 X136.202 Y97.85 E126.82648
G0 F7200 X136.909 Y97.85
G1 F4200 X128.766 Y105.993 E127.31483
G0 F7200 X128.766 Y106.7
G1 F4200 X137.616 Y97.85 E127.84559
G0 F7200 X138.323 Y97.85
G1 F4200 X128.766 Y107.407 E128.41874
G0 F7200 X128.766 Y108.114
G1 F4200 X129.744 Y107.136 E128.47739
G0 F7200 X129.744 Y107.843
G1 F4200 X128.766 Y108.821 E128.53605
G0 F7200 X128.766 Y109.528
G1 F4200 X129.744 Y108.55 E128.5947
G0 F7200 X129.744 Y109.257
G1 F4200 X128.766 Y110.235 E128.65335
G0 F7200 X128.766 Y110.942
G1 F4200 X129.744 Y109.965 E128.71197
G0 F7200 X129.744 Y110.672
G1 F4200 X128.766 Y111.65 E128.77063
G0 F7200 X128.766 Y112.357
G1 F4200 X129.744 Y111.379 E128.82928
G0 F7200 X129.744 Y112.086
G1 F4200 X128.766 Y113.064 E128.88793
G0 F7200 X128.766 Y113.771
G1 F4200 X129.744 Y112.793 E128.94659
G0 F7200 X129.744 Y113.5
G1 F4200 X128.766 Y114.478 E129.00524
G0 F7200 X128.801 Y115.15
G1 F4200 X129.744 Y114.207 E129.06179
G0 F7200 X129.744 Y114.914
G1 F4200 X129.508 Y115.15 E129.07595
G1 F1500 E128.27595
G1 F720 Z0.85
G0 F7200 X130.73 Y106.15 Z0.85
G1 F720 Z0.45
G1 F2100 E129.09673
G1 F4200 X139.03 Y97.85 E129.5945
G0 F7200 X139.737 Y97.85
G1 F4200 X131.437 Y106.15 E130.09227
G0 F7200 X132.144 Y106.15
G1 F4200 X140.444 Y97.85 E130.59004
